!!!COM: Paul Hindemith
!!!OTL: [T649_Hin-w70p62h1m1-16]
**kern	**dynam	**kern	**dynam	**kern	**dynam	**kern	**dynam	**kern	**dynam	**kern	**dynam	**kern	**dynam	**kern	**dynam	**kern	**dynam	**kern	**dynam	**kern	**dynam	**kern	**dynam
*grp:A	*	*grp:A	*	*grp:A	*	*grp:B	*	*grp:B	*	*grp:B	*	*grp:A	*	*grp:A	*	*grp:A	*	*grp:A	*	*grp:A	*	*grp:A	*
*part12	*part12	*part11	*part11	*part10	*part12	*part9	*part9	*part8	*part8	*part7	*part7	*part6	*part6	*part5	*part5	*part4	*part4	*part3	*part3	*part2	*part2	*part1	*part1
*staff12	*	*staff11	*	*staff10	*	*staff9	*	*staff8	*	*staff7	*	*staff6	*	*staff5	*	*staff4	*	*staff3	*	*staff2	*	*staff1	*
*I"Contrabass	*	*I"Violoncello	*	*I"Viola	*	*I"Violin II	*	*I"Violin I	*	*I"Solo Violin	*	*I"Triangle	*	*I"Bassoon 2.	*	*I"Bassoon 1.	*	*I"Bass Clarinet [C]	*	*I"Clarinet in Bb 2.	*	*I"Clarinet in Bb 1.	*
*I'Cb.	*	*I'Vc.	*	*I'Vla.	*	*I'Vln. II	*	*I'Vln. I	*	*I'Vln.	*	*I'Tri.	*	*I'Bsn. II	*	*I'Bsn. I	*	*I'B. Cl.	*	*I'Cl. II	*	*I'Cl. I	*
*ICstr	*	*ICstr	*	*ICstr	*	*ICstr	*	*ICstr	*	*ICstr	*	*ICidio	*	*ICww	*	*ICww	*	*ICww	*	*ICww	*	*ICww	*
*Icbass	*	*Icello	*	*Iviola	*	*Ivioln	*	*Ivioln	*	*Ivioln	*	*Itrngl	*	*Ifagot	*	*Ifagot	*	*Iclarb	*	*Iclars	*	*Iclars	*
*	*	*	*	*	*	*	*	*	*	*	*	*stria1	*	*	*	*	*	*	*	*	*	*	*
*clefF4	*	*clefF4	*	*clefC3	*	*clefG2	*	*clefG2	*	*clefG2	*	*clefX	*	*clefC4	*	*clefC4	*	*clefG2	*	*clefG2	*	*clefG2	*
*ITrd7c12	*	*	*	*	*	*	*	*	*	*	*	*	*	*	*	*	*	*ITrd1c2	*	*ITrd1c2	*	*ITrd1c2	*
*k[]	*	*k[]	*	*k[]	*	*k[]	*	*k[]	*	*k[]	*	*k[]	*	*k[]	*	*k[]	*	*k[0]	*	*k[b-e-]	*	*k[b-e-]	*
*	*	*	*	*	*	*	*	*	*	*	*	*C:	*	*	*	*	*	*	*	*	*	*	*
*M2/4	*	*M2/4	*	*M2/4	*	*M2/4	*	*M2/4	*	*M2/4	*	*M2/4	*	*M2/4	*	*M2/4	*	*M2/4	*	*M2/4	*	*M2/4	*
!!LO:REH:t=1
=1	=1	=1	=1	=1	=1	=1	=1	=1	=1	=1	=1	=1	=1	=1	=1	=1	=1	=1	=1	=1	=1	=1	=1
!	!LO:DY:ed=brack	!	!LO:DY:ed=brack	!	!LO:DY:ed=brack	!	!	!	!	!	!	!	!	!	!	!	!	!	!	!	!	!LO:TX:t=[[quarter]=152]	!
8DD-X	p	8A-X	p	8D-X	p	2r	.	2r	.	[2ddd-X	mf	2r	.	2r	.	8g-X'L	p	8d-'L	p	8d-X'L	p	8a-X'L	p
8r	.	8r	.	8r	.	.	.	.	.	.	.	.	.	.	.	8g-'J	.	8d-'J	.	8d-'J	.	8a-'J	.
4r	.	4r	.	4r	.	.	.	.	.	.	.	.	.	.	.	8r	.	8r	.	8r	.	8r	.
.	.	.	.	.	.	.	.	.	.	.	.	.	.	.	.	8g-'	.	8d-'	.	8d-'	.	8a-'	.
=2	=2	=2	=2	=2	=2	=2	=2	=2	=2	=2	=2	=2	=2	=2	=2	=2	=2	=2	=2	=2	=2	=2	=2
2r	.	2r	.	2r	.	2r	.	2r	.	4ddd-]	.	2r	.	2r	.	8g-X'	.	8d-'	.	8d-X'	.	8a-X'	.
.	.	.	.	.	.	.	.	.	.	.	.	.	.	.	.	8r'	.	8r'	.	8r'	.	8r'	.
.	.	.	.	.	.	.	.	.	.	((16ddd-XLL	.	.	.	.	.	8g-'L	.	8d-'L	.	8d-'L	.	8a-'L	.
.	.	.	.	.	.	.	.	.	.	16eee-X	.	.	.	.	.	.	.	.	.	.	.	.	.
.	.	.	.	.	.	.	.	.	.	16ggg-X	.	.	.	.	.	8g-'J	.	8d-'J	.	8d-'J	.	8a-'J	.
.	.	.	.	.	.	.	.	.	.	16eee-JJ	.	.	.	.	.	.	.	.	.	.	.	.	.
=3	=3	=3	=3	=3	=3	=3	=3	=3	=3	=3	=3	=3	=3	=3	=3	=3	=3	=3	=3	=3	=3	=3	=3
2r	.	2r	.	2r	.	2r	.	2r	.	8ddd-XL)	.	2r	.	2r	.	8r'	.	8r'	.	8r'	.	8r'	.
.	.	.	.	.	.	.	.	.	.	8bb-X'	.	.	.	.	.	8g-X'L	.	8d-'L	.	8d-X'L	.	8a-X'L	.
.	.	.	.	.	.	.	.	.	.	8aa-X'	.	.	.	.	.	8g-'J	.	8d-'J	.	8d-'J	.	8a-'J	.
.	.	.	.	.	.	.	.	.	.	8ee-X'J)	.	.	.	.	.	8r'	.	8r'	.	8r'	.	8r'	.
=4	=4	=4	=4	=4	=4	=4	=4	=4	=4	=4	=4	=4	=4	=4	=4	=4	=4	=4	=4	=4	=4	=4	=4
2r	.	2r	.	2r	.	2r	.	2r	.	8aa-XL	.	2r	.	2r	.	8g-X'L	.	8d-'L	.	8d-X'L	.	8a-X'L	.
.	.	.	.	.	.	.	.	.	.	((16aa-L	.	.	.	.	.	8g-'J	.	8d-'J	.	8d-'J	.	8a-'J	.
.	.	.	.	.	.	.	.	.	.	16ee-XJJ	.	.	.	.	.	.	.	.	.	.	.	.	.
.	.	.	.	.	.	.	.	.	.	8dd-XL)	.	.	.	.	.	8r'	.	8r'	.	8r'	.	8r'	.
.	.	.	.	.	.	.	.	.	.	8a-X'J)	.	.	.	.	.	8g-'	.	8A-'	.	8e-'	.	8a-'	.
=5	=5	=5	=5	=5	=5	=5	=5	=5	=5	=5	=5	=5	=5	=5	=5	=5	=5	=5	=5	=5	=5	=5	=5
2r	.	2r	.	2r	.	2r	.	2r	.	(16b-XLL	.	2r	.	2r	.	8g-X	.	8A-	.	8e-	.	8a-X	.
.	.	.	.	.	.	.	.	.	.	16a-X	.	.	.	.	.	.	.	.	.	.	.	.	.
.	.	.	.	.	.	.	.	.	.	16b-	.	.	.	.	.	8r'	.	8r'	.	8r'	.	8r'	.
.	.	.	.	.	.	.	.	.	.	16dd-XJJ	.	.	.	.	.	.	.	.	.	.	.	.	.
.	.	.	.	.	.	.	.	.	.	[4b-)	.	.	.	.	.	8g-L	.	8A-L	.	8e-L	.	8a-L	.
.	.	.	.	.	.	.	.	.	.	.	.	.	.	.	.	8g-J	.	8A-J	.	8e-J	.	8a-J	.
=6	=6	=6	=6	=6	=6	=6	=6	=6	=6	=6	=6	=6	=6	=6	=6	=6	=6	=6	=6	=6	=6	=6	=6
2r	.	2r	.	2r	.	2r	.	2r	.	8b-L]	<	2r	.	8r'	.	8r'	.	8r'	.	8r'	.	8r'	.
.	.	.	.	.	.	.	.	.	.	((16anL	.	.	.	8G-XL	p <	8g-XL	<	8AXL	<	8eXL	<	8aL	<
.	.	.	.	.	.	.	.	.	.	16bnJJ	.	.	.	.	.	.	.	.	.	.	.	.	.
.	.	.	.	.	.	.	.	.	.	8ddnL)	.	.	.	8G-J	.	8g-J	.	8AJ	.	8eJ	.	8aJ	.
.	.	.	.	.	.	.	.	.	.	8ee'J)	.	.	.	8r'	.	8r'	.	8r'	.	8r'	.	8r'	.
=7	=7	=7	=7	=7	=7	=7	=7	=7	=7	=7	=7	=7	=7	=7	=7	=7	=7	=7	=7	=7	=7	=7	=7
2r	.	2r	.	2r	.	2r	.	2r	.	8ggL	.	2r	.	8G-XL	.	8g-XL	.	8AXL	.	8eXL	.	8aL	.
.	.	.	.	.	.	.	.	.	.	((16ddL	.	.	.	8G-J	.	8g-J	.	8AJ	.	8eJ	.	8aJ	.
.	.	.	.	.	.	.	.	.	.	16eeJJ	.	.	.	.	.	.	.	.	.	.	.	.	.
.	.	.	.	.	.	.	.	.	.	8ggL)	.	.	.	8r'	.	8r'	.	8r'	.	8r'	.	8r'	.
.	.	.	.	.	.	.	.	.	.	8aa'J)	.	.	.	8G-	.	8g-	.	8A	.	8e	.	8a	.
=8	=8	=8	=8	=8	=8	=8	=8	=8	=8	=8	=8	=8	=8	=8	=8	=8	=8	=8	=8	=8	=8	=8	=8
2r	.	2r	.	2r	.	2r	.	2r	.	8cccL	.	2r	.	8G-X	.	8g-X	.	8AX	.	8eX	.	8a	.
.	.	.	.	.	.	.	.	.	.	((16ggL	.	.	.	8r'	[	8r'	[	8r'	[	8r'	[	8r'	[
.	.	.	.	.	.	.	.	.	.	16aaJJ	.	.	.	.	.	.	.	.	.	.	.	.	.
.	.	.	.	.	.	.	.	.	.	8cccL)	.	.	.	8G-L	.	8g-L	.	8AL	.	8eL	.	8aL	.
.	.	.	.	.	.	.	.	.	.	8ddd'J)	[	.	.	8G-J	.	8g-J	.	8AJ	.	8eJ	.	8aJ	.
=9	=9	=9	=9	=9	=9	=9	=9	=9	=9	=9	=9	=9	=9	=9	=9	=9	=9	=9	=9	=9	=9	=9	=9
2r	.	2r	.	2r	.	2r	.	2r	.	(16fffLL	.	2r	.	8r'	.	8r'	.	8r'	.	8r'	.	8r'	.
.	.	.	.	.	.	.	.	.	.	16eee	.	.	.	.	.	.	.	.	.	.	.	.	.
.	.	.	.	.	.	.	.	.	.	16fff	.	.	.	8FL	>	8fL	>	8B-L	>	8e-L	>	8b-L	>
.	.	.	.	.	.	.	.	.	.	16eeeJJ)	.	.	.	.	.	.	.	.	.	.	.	.	.
.	.	.	.	.	.	.	.	.	.	[4eee-X	.	.	.	8FJ	.	8fJ	.	8B-J	.	8e-J	.	8b-J	.
.	.	.	.	.	.	.	.	.	.	.	.	.	.	8r'	.	8r'	.	8r'	.	8r'	.	8r'	.
=10	=10	=10	=10	=10	=10	=10	=10	=10	=10	=10	=10	=10	=10	=10	=10	=10	=10	=10	=10	=10	=10	=10	=10
2r	.	2r	.	2r	.	4r	.	4r	.	8eee-L]	.	2r	.	8FL	.	8fL	.	8B-L	.	8e-L	.	8b-L	.
.	.	.	.	.	.	.	.	.	.	(8aaa-X	.	.	.	8FJ	.	8fJ	.	8B-J	.	8e-J	.	8b-J	.
.	.	.	.	.	.	8r	.	8r	.	8fff)	.	.	.	4r	]	4r	]	4r	]	4r	]	4r	]
.	.	.	.	.	.	(8a-X	mp	(8aa-X	mp	8eee-XJ	.	.	.	.	.	.	.	.	.	.	.	.	.
=11	=11	=11	=11	=11	=11	=11	=11	=11	=11	=11	=11	=11	=11	=11	=11	=11	=11	=11	=11	=11	=11	=11	=11
2r	.	2r	.	2r	.	8fL)	.	8ffL)	.	8dddnL	.	2r	.	2r	.	2r	.	2r	.	2r	.	2r	.
.	.	.	.	.	.	((8e-X	.	((8ee-X	.	((8fff	.	.	.	.	.	.	.	.	.	.	.	.	.
.	.	.	.	.	.	8dn)	.	8ddn)	.	8ccc)	.	.	.	.	.	.	.	.	.	.	.	.	.
.	.	.	.	.	.	8f'J)	.	8ff'J)	.	8bbn'J)	.	.	.	.	.	.	.	.	.	.	.	.	.
*	*	*	*	*	*	*	*	*	*	*	*	*	*	*clefF4	*	*clefF4	*	*	*	*	*	*	*
=12	=12	=12	=12	=12	=12	=12	=12	=12	=12	=12	=12	=12	=12	=12	=12	=12	=12	=12	=12	=12	=12	=12	=12
2r	.	4r	.	2r	.	(8cL	.	(8ccL	.	4.bb-X	.	2r	.	4r	.	4r	.	2r	.	2r	.	2r	.
.	.	.	.	.	.	8d-XJ)	.	8dd-XJ)	.	.	.	.	.	.	.	.	.	.	.	.	.	.	.
!	!	!LO:TX:a:t=pizz.	!	!	!	!	!	!	!	!	!	!	!	!	!	!	!	!	!	!	!	!	!
.	.	8E-X	mf	.	.	8r	.	8r	.	.	.	.	.	8E-X	mf	8E-X	mf	.	.	.	.	.	.
.	.	8r	.	.	.	8c	.	8cc	.	((8bb-	>	.	.	8r	.	8r	.	.	.	.	.	.	.
=13	=13	=13	=13	=13	=13	=13	=13	=13	=13	=13	=13	=13	=13	=13	=13	=13	=13	=13	=13	=13	=13	=13	=13
2r	.	8F	.	2r	.	(8B-XL	>	(8b-XL	>	4.aa-X)	.	2r	.	8F	.	8F	.	2r	.	2r	.	2r	.
.	.	8r	.	.	.	8cJ)	.	8ccJ)	.	.	.	.	.	8r	.	8r	.	.	.	.	.	.	.
.	.	8G-X	.	.	.	8r	.	8r	.	.	.	.	.	8G-X	.	8G-X	.	.	.	.	.	.	.
.	.	8r	.	.	.	8B-	]	8b-	]	8aa-')	]	.	.	8r	.	8r	.	.	.	.	.	.	.
*	*	*	*	*	*	*	*	*	*	*	*	*	*	*clefC4	*	*clefC4	*	*	*	*	*	*	*
=14	=14	=14	=14	=14	=14	=14	=14	=14	=14	=14	=14	=14	=14	=14	=14	=14	=14	=14	=14	=14	=14	=14	=14
!	!	!LO:TX:a:t=arco	!	!	!	!	!	!	!	!	!	!	!	!	!	!	!	!	!	!	!	!	!
*	*	*grp:B	*	*	*	*	*	*	*	*	*	*	*	*	*	*	*	*	*	*	*	*	*
2r	.	(4d-X	p	2r	.	8A-X	p	8a-X	p	[2ddd-X	mf	8Re/	pp	8d-X	p	8g-XL	p	8d-L	p	8d-XL	p	8a-XL	p
.	.	.	.	.	.	8r	.	8r	.	.	.	8r	.	8r	.	8g-J	.	8d-J	.	8d-J	.	8a-J	.
.	.	4B-X	.	.	.	4r	.	4r	.	.	.	8r	.	4r	.	8r	.	8r	.	8r	.	8r	.
.	.	.	.	.	.	.	.	.	.	.	.	8Re/	.	.	.	8g-	.	8d-	.	8d-	.	8a-	.
=15	=15	=15	=15	=15	=15	=15	=15	=15	=15	=15	=15	=15	=15	=15	=15	=15	=15	=15	=15	=15	=15	=15	=15
2r	.	4A-X	.	2r	.	2r	.	2r	.	4ddd-]	.	8Re/	.	2r	.	8g-X	.	8d-	.	8d-X	.	8a-X	.
.	.	.	.	.	.	.	.	.	.	.	.	8r	.	.	.	8r'	.	8r'	.	8r'	.	8r'	.
.	.	4G-X)	.	.	.	.	.	.	.	((16ddd-XLL	.	4r	.	.	.	8g-L	.	8d-L	.	8d-L	.	8a-L	.
.	.	.	.	.	.	.	.	.	.	16eee-X	.	.	.	.	.	.	.	.	.	.	.	.	.
.	.	.	.	.	.	.	.	.	.	16ggg-X	.	.	.	.	.	8g-J	.	8d-J	.	8d-J	.	8a-J	.
.	.	.	.	.	.	.	.	.	.	16eee-JJ	.	.	.	.	.	.	.	.	.	.	.	.	.
=16	=16	=16	=16	=16	=16	=16	=16	=16	=16	=16	=16	=16	=16	=16	=16	=16	=16	=16	=16	=16	=16	=16	=16
2r	.	(4E-X	.	2r	.	2r	.	2r	.	8ddd-X'L)	.	2r	.	2r	.	8r'	.	8r'	.	8r'	.	8r'	.
.	.	.	.	.	.	.	.	.	.	8bb-X'	.	.	.	.	.	8g-XL	.	8d-L	.	8d-XL	.	8a-XL	.
.	.	4D-X)	.	.	.	.	.	.	.	8aa-X'	.	.	.	.	.	8g-J	.	8d-J	.	8d-J	.	8a-J	.
.	.	.	.	.	.	.	.	.	.	8ee-X'J)	.	.	.	.	.	8r'	.	8r'	.	8r'	.	8r'	.
=	=	=	=	=	=	=	=	=	=	=	=	=	=	=	=	=	=	=	=	=	=	=	=
*-	*-	*-	*-	*-	*-	*-	*-	*-	*-	*-	*-	*-	*-	*-	*-	*-	*-	*-	*-	*-	*-	*-	*-
!!!system-decoration: [([(s1,s2)]s3[(s4,s5)])]s6,s7[([(s8,s9)]s10,s11,s12)]
